X: 20422
M: C|
L: 1/8
K: D
fg |\
afge dfed | cdec ABAG | FA df gfed | (ce)A2 A2fg |\
afge dfed | cdec ABAG | FA df gedc | d2d2 d2 :|
|: cd |\
eAAA eAeA | fAAA fAfA | gfed dcBA | B2B2 B2AG |\


